src/assets/imgs/hair-palette-page/carousel/right-arrow.svg

<svg fill="none" height="36" viewBox="0 0 20 36" width="20" xmlns="http://www.w3.org/2000/svg"><path d="m3.27478 33.8512c-.22326.2232-.50233.3349-.8093.3349-.30698 0-.58605-.1117-.80931-.3349-.44651-.4465-.44651-1.1721 0-1.6186l14.23253-14.2326-14.23253-14.23255c-.44651-.44651-.44651-1.17209 0-1.6186s1.1721-.44651 1.61861 0l15.04182 15.04185c.4466.4465.4466 1.1721 0 1.6186z" fill="#fff" stroke="#fff" stroke-width="2"/></svg>

<svg width="20" height="36" viewBox="0 0 20 36" fill="none" xmlns="http://www.w3.org/2000/svg">
<path d="M3.27478 33.8512C3.05152 34.0744 2.77245 34.1861 2.46548 34.1861C2.1585 34.1861 1.87943 34.0744 1.65617 33.8512C1.20966 33.4047 1.20966 32.6791 1.65617 32.2326L15.8887 18L1.65617 3.76745C1.20966 3.32094 1.20966 2.59536 1.65617 2.14885C2.10268 1.70234 2.82827 1.70234 3.27478 2.14885L18.3166 17.1907C18.7632 17.6372 18.7632 18.3628 18.3166 18.8093L3.27478 33.8512Z" fill="white" stroke="white" stroke-width="2"/>
</svg>
